X:1015
T:Jim Tweedie's Sea-Legs
C:J Allan MacGee
Z:Nigel Gatherer
S:Internet
M:4/4
L:1/8
K: D
f>g | a2A2 A2d>c | B<dG2 G2f>g | a2A2   a>gf>d | c>ee>f e2
f>g | a2A2 A2d>c | B<dG2 G2a2  | A>eA>e e>Ac>B | A>cf>e d2 :| 
f>g | a>Ad>f A>df>A | d>f a>f e4 | A>eA>e e>Ac>B | A>ce>A f>ec<A |
a>Ad>f A>df>A | d>f a>f e4 | A>eA>e e>Ac>B | A>cf>e d2 :|
a>g | f>dd2 G>dd2 | G>BB2 e4 | A>eA>e e>Ac>B | A>ce>A f>ec<A |
a>dd2 G>dd2 | G>BB2 e4 | A>eA>e e>Ac>B | A>cf>e d2 ||
a>g | f>dd2 G>cc2 | G>BB2 e4 | A>eA>e e>Ac>B | A>ce>A f>ec<A |
a>dd2 G>BB2 | G>cc2 e4 | A>eA>e e>Ac>B | A>cf>e d2 |
f>g | a2A>a A>aa>f | g2A>e A>ee>A | A>eA>e e>Ac>B | A>ce>A f>ec<A |
a2A>a A>aa>f | g2A>e A>ee>A | A>eA>e e>Ac>B | A>cf>e d2 :|
f>g | a>Ad>f A>df>A | d>fA>d f>Ad<A | c<eA>c e>Ac<e | A>ce>A f>ec<A |
a>Ad>f A>df>A | d>fA>d f>Ad<A | c<eA>c a>cf<e | A>cf>e d2 :|
<end>
<start>
